!!!COM: Compositor / arreglista
!!!OTL: Partitura sin título
**kern
*I"Guitarra acústica
*I'Guit.
*clefGv2
*k[]
*M6/8
=1
8BL
8G
8AJ
8.BL
16GK
8FJ
=2
8FL
16AL
16BJ
8BJ
8AL
8A
8AJ
=3
4.G
16BKL
8.c
8cJ
=4
8FL
8A
[8cJ
8cL]
8B
8AJ
=5
8EL
16FL
16GJ
8AJ
8c
4c
!!linebreak:original
=6
2.C
=7
8BL
8G
8AJ
8.BL
16GK
8FJ
=8
8FL
16AL
16BJ
8BJ
8AL
8A
8AJ
=9
4.G
16BKL
8.c
8cJ
=10
8FL
8A
[8cJ
8cL]
8B
8AJ
=11
8EL
16FL
16GJ
8AJ
8c
4c
!!linebreak:original
=12
8BL
8G
8AJ
8.BL
16GK
8FJ
=13
8FL
16AL
16BJ
8BJ
8AL
8A
8AJ
=14
4.G
16BKL
8.c
8cJ
=15
8FL
8A
[8cJ
8cL]
8B
8AJ
=16
8EL
16FL
16GJ
8AJ
8c
4c
!!linebreak:original
=17
8BL
8G
8AJ
8.BL
16GK
8FJ
=18
8FL
16AL
16BJ
8BJ
8AL
8A
8AJ
=19
4.G
16BKL
8.c
8cJ
=20
8FL
8A
[8cJ
8cL]
8B
8AJ
=21
8EL
16FL
16GJ
8AJ
8c
4c
=22
2.r
!!linebreak:original
=23
8BL
8G
8AJ
8.BL
16GK
8FJ
=24
8FL
16AL
16BJ
8BJ
8AL
8A
8AJ
=25
4.G
16BKL
8.c
8cJ
=26
8FL
8A
[8cJ
8cL]
8B
8AJ
=27
8EL
16FL
16GJ
8AJ
8c
4c
!!linebreak:original
=28
8BL
8G
8AJ
8.BL
16GK
8FJ
=29
8FL
16AL
16BJ
8BJ
8AL
8A
8AJ
=30
4.G
16BKL
8.c
8cJ
=31
8FL
8A
[8cJ
8cL]
8B
8AJ
=32
8EL
16FL
16GJ
8AJ
8c
4c
=33
2.C
!!linebreak:original
=34
2.r
=35
2.r
=36
2.r
=37
2.r
=38
2.r
=39
2.r
=40
2.r
=41
2.r
=42
2.r
=43
2.r
==
*-